!!!OTL: Ritou luo shan
!!!ARE: Asia, China,ÿTaiwan, Xinzhu, Zhongli, Taoyuan
!! IV, 643
!!!SCT: C1709
!!!YEM: Copyright 1995, estate of Helmut Schaffrath.
**kern
*ICvox
*Ivox
*M2/4
*k[f#c#]
*D:
{8f#
8f#
4a
=1
8b
16f#
[16a
4a]
=2
8e
16f#
16e
8d
8B
=3
8a
16b
16f#
4a
=4
8d
16e
16f#
16e
16d
8B
=5
2d}
=6
{8a
8f#
4a
=7
8d
16e
16f#
16e
16d
8B
=8
8A
4.A}
=9
{8B
16a
16f#
16e
16f#
8a
=10
8B
16c#
16B
8A
[8A
=11
2A]}
=12
{8a
4.f#
=13
8e
16f#
16e
4d
=14
8A
4.A}
=15
{8d
8e
8f#
8a
=16
16a
16d
16e
16f#
16e
16d
8B
=17
2d}
=18
{8B
8f#
4A
=19
8d
16e
16f#
16e
16d
8B
=20
8A
4.A}
=21
{8B
8d
8f#
8a
=22
8B
4.B
=23
2A}
==
!!!AGN: Xiaodiao, Pingban diao, Caicha diao
!!!AMT: simple duple
!!!AIN: vox
!!!EED: Helmut Schaffrath
!!!EEV: 1.0
*-
!!!ONB: Tied note syntax fixed by Craig Sapp, 2004/05/03/
